X: 1
T: Captain Dunne's March
M: 4/4
L: 1/8
R: barndance
K: Gmaj
dB |
G2 G>F GB dB | c2 A>^G A3 c | B/c/d ef gd BG | d2 d>e dc BA |
G2 G>F GB dB | c2 A>^G A3 c | B/c/d BG A/B/c AF | G2 G>F G2 :|
|: de/f/ |
g2 gf gd BG | c2 A>^G A2 fg | a2 ab ag fe | de fe dc BA |
G2 GF G/A/B dB | c2 A>^G A3 c | B/c/d BG A/B/c AF | G2 GF G2 :|
K:Dmaj
AF | 
D2 D/D/D DF AD | G2 E>E E3 G | FA Bc dA FD | A2 AB AG FE |
D2 D>D DF AF | G2 E/E/E E3 G | F/G/A F>D EG E>C | D2 D>D D2 :|
A/B/c | 
d2 d>e dA F/E/D | G2 E>E E2 cd | e>^d ef e=d cB | A>^G AB A=G FE |
DD/D/ D/D/D DE/F/ AF | GA/G/ E>E E2 G2 | F/G/A F>D EF/G/ EC | D2 D>D D2 :|
